X: 594
T:Gan Ainm 1022 Jig
M:6/8
L:1/8
Q:110
S:from Mike Rafferty who had it from Cathal McConnell
N:Posted to the woodenflute mailing list November 2002
R:Jig
Z:Tom Madden
K:G
AG |:E2A ABd | cAA d2e | f2d ged | cAF GFE|
F2A ABd | cAA d2e | f2d ged |1 cAA A2G :|2 cAA A2a ||
~g3 efg | fed ^cde | fed ged | cAF GFE|
F2A ABd | cAA d2e | f2d ged |1 cAA A2a :|2 cAA A3 ||

